<?xml version="1.0" encoding="UTF-8"?>
<map version="1.10" tiledversion="1.11.0" orientation="orthogonal" renderorder="right-down" width="50" height="30" tilewidth="16" tileheight="16" infinite="0" nextlayerid="4" nextobjectid="1">
 <editorsettings>
  <export format="json"/>
 </editorsettings>
 <tileset firstgid="1" name="blockTiles" tilewidth="16" tileheight="16" tilecount="27" columns="9">
  <image source="../../../../../../../dup/browser-game/public/assets/images/tiles.png" width="144" height="48"/>
  <tile id="0">
   <objectgroup draworder="index" id="2">
    <object id="1" x="0" y="0" width="16" height="16"/>
   </objectgroup>
  </tile>
  <tile id="1">
   <objectgroup draworder="index" id="2">
    <object id="1" x="0" y="0" width="16" height="16"/>
   </objectgroup>
  </tile>
  <tile id="2">
   <objectgroup draworder="index" id="2">
    <object id="1" x="0" y="0" width="16" height="16"/>
   </objectgroup>
  </tile>
  <tile id="3">
   <objectgroup draworder="index" id="2">
    <object id="1" x="0" y="0" width="16" height="16"/>
   </objectgroup>
  </tile>
  <tile id="4">
   <objectgroup draworder="index" id="2">
    <object id="1" x="0" y="0" width="16" height="16"/>
   </objectgroup>
  </tile>
  <tile id="5">
   <objectgroup draworder="index" id="2">
    <object id="1" x="0" y="0" width="16" height="16"/>
   </objectgroup>
  </tile>
  <tile id="6">
   <objectgroup draworder="index" id="2">
    <object id="1" x="0" y="0" width="16" height="16"/>
   </objectgroup>
  </tile>
  <tile id="7">
   <objectgroup draworder="index" id="2">
    <object id="1" x="0" y="0" width="16" height="16"/>
   </objectgroup>
  </tile>
  <tile id="8">
   <objectgroup draworder="index" id="2">
    <object id="1" x="0" y="0" width="16" height="16"/>
    <object id="2" x="0" y="0" width="16" height="16"/>
   </objectgroup>
  </tile>
  <tile id="9">
   <properties>
    <property name="collides" type="bool" value="true"/>
   </properties>
   <objectgroup draworder="index" id="2">
    <object id="1" x="0" y="0" width="16" height="16"/>
   </objectgroup>
  </tile>
  <tile id="10">
   <properties>
    <property name="collides" type="bool" value="true"/>
   </properties>
   <objectgroup draworder="index" id="2">
    <object id="1" x="0" y="0" width="16" height="16"/>
   </objectgroup>
  </tile>
  <tile id="11">
   <properties>
    <property name="collides" type="bool" value="true"/>
   </properties>
   <objectgroup draworder="index" id="2">
    <object id="1" x="0" y="0" width="16" height="16"/>
   </objectgroup>
  </tile>
  <tile id="12">
   <properties>
    <property name="collides" type="bool" value="true"/>
   </properties>
   <objectgroup draworder="index" id="2">
    <object id="1" x="0" y="0" width="16" height="16"/>
   </objectgroup>
  </tile>
  <tile id="13">
   <properties>
    <property name="collides" type="bool" value="true"/>
   </properties>
   <objectgroup draworder="index" id="2">
    <object id="1" x="0" y="0" width="16" height="16"/>
   </objectgroup>
  </tile>
  <tile id="14">
   <properties>
    <property name="collides" type="bool" value="true"/>
   </properties>
   <objectgroup draworder="index" id="2">
    <object id="1" x="0" y="0" width="16" height="16"/>
   </objectgroup>
  </tile>
  <tile id="15">
   <properties>
    <property name="collides" type="bool" value="true"/>
   </properties>
   <objectgroup draworder="index" id="2">
    <object id="1" x="0" y="0" width="16" height="16"/>
   </objectgroup>
  </tile>
  <tile id="16">
   <properties>
    <property name="collides" type="bool" value="true"/>
   </properties>
   <objectgroup draworder="index" id="2">
    <object id="1" x="0" y="0" width="16" height="16"/>
   </objectgroup>
  </tile>
  <tile id="17">
   <properties>
    <property name="collides" type="bool" value="true"/>
   </properties>
   <objectgroup draworder="index" id="2">
    <object id="1" x="0" y="0" width="16" height="16"/>
   </objectgroup>
  </tile>
  <tile id="18">
   <properties>
    <property name="collides" type="bool" value="true"/>
   </properties>
   <objectgroup draworder="index" id="2">
    <object id="1" x="0" y="0" width="16" height="16"/>
   </objectgroup>
  </tile>
  <tile id="19">
   <objectgroup draworder="index" id="2">
    <object id="1" x="0" y="0" width="16" height="16"/>
   </objectgroup>
  </tile>
  <tile id="20">
   <objectgroup draworder="index" id="2">
    <object id="1" x="0" y="0" width="16" height="16"/>
   </objectgroup>
  </tile>
 </tileset>
 <layer id="1" name="Background" width="50" height="30">
  <data encoding="csv">
6,6,6,6,6,6,6,6,6,6,6,6,6,6,6,6,6,6,6,6,6,6,6,6,6,6,6,6,6,6,6,6,6,6,6,6,6,6,6,6,6,6,6,6,6,6,6,6,6,6,
6,6,6,6,6,6,6,6,6,6,6,6,6,6,6,6,6,6,6,6,6,6,6,6,6,6,6,6,6,6,6,6,6,6,6,6,6,6,6,6,6,6,6,6,6,6,6,6,6,6,
6,6,6,6,6,6,6,6,6,6,6,6,6,6,6,6,6,6,6,6,6,6,6,6,6,6,6,6,6,6,6,6,6,6,6,6,6,6,6,6,6,6,6,6,6,6,6,6,6,6,
6,6,6,6,6,6,6,6,6,6,6,6,6,6,6,6,6,6,6,6,6,6,6,6,6,6,6,6,6,6,6,6,6,6,6,6,6,6,6,6,6,6,6,6,6,6,6,6,6,6,
6,6,6,6,6,6,6,6,6,6,6,6,6,6,6,6,6,6,6,6,6,6,6,6,6,6,6,6,6,6,6,6,6,6,6,6,6,6,6,6,6,6,6,6,6,6,6,6,6,6,
6,6,6,6,6,6,6,6,6,6,6,6,6,6,6,6,6,6,6,6,6,6,6,6,6,6,6,6,6,6,6,6,6,6,6,6,6,6,6,6,6,6,6,6,6,6,6,6,6,6,
6,6,6,6,6,6,6,6,6,6,6,6,6,6,6,6,6,6,6,6,6,6,6,6,6,6,6,6,6,6,6,6,6,6,6,6,6,6,6,6,6,6,6,6,6,6,6,6,6,6,
6,6,6,6,6,6,6,6,6,6,6,6,6,6,6,6,6,6,6,6,6,6,6,6,6,6,6,6,6,6,6,6,6,6,6,6,6,6,6,6,6,6,6,6,6,6,6,6,6,6,
6,6,6,6,6,6,6,6,6,6,6,6,6,6,6,6,6,6,6,6,6,6,6,6,6,6,6,6,6,6,6,6,6,6,6,6,6,6,6,6,6,6,6,6,6,6,6,6,6,6,
6,6,6,6,6,6,6,6,6,6,6,6,6,6,6,6,6,6,6,6,6,6,6,6,6,6,6,6,6,6,6,6,6,6,6,6,6,6,6,6,6,6,6,6,6,6,6,6,6,6,
6,6,6,6,6,6,6,6,6,6,6,6,6,6,6,6,6,6,6,6,6,6,6,6,6,6,6,6,6,6,6,6,6,6,6,6,6,6,6,6,6,6,6,6,6,6,6,6,6,6,
6,6,6,6,6,6,6,6,6,6,6,6,6,6,6,6,6,6,6,6,6,6,6,6,6,6,6,6,6,6,6,6,6,6,6,6,6,6,6,6,6,6,6,6,6,6,6,6,6,6,
6,6,6,6,6,6,6,6,6,6,6,6,6,6,6,6,6,6,6,6,6,6,6,6,6,6,6,6,6,6,6,6,6,6,6,6,6,6,6,6,6,6,6,6,6,6,6,6,6,6,
6,6,6,6,6,6,6,6,6,6,6,6,6,6,6,6,6,6,6,6,6,6,6,6,6,6,6,6,6,6,6,6,6,6,6,6,6,6,6,6,6,6,6,6,6,6,6,6,6,6,
6,6,6,6,6,6,6,6,6,6,6,6,6,6,6,6,6,6,6,6,6,6,6,6,6,6,6,6,6,6,6,6,6,6,6,6,6,6,6,6,6,6,6,6,6,6,6,6,6,6,
6,6,6,6,6,6,6,6,6,6,6,6,6,6,6,6,6,6,6,6,6,6,6,6,6,6,6,6,6,6,6,6,6,6,6,6,6,6,6,6,6,6,6,6,6,6,6,6,6,6,
6,6,6,6,6,6,6,6,6,6,6,6,6,6,6,6,6,6,6,6,6,6,6,6,6,6,6,6,6,6,6,6,6,6,6,6,6,6,6,6,6,6,6,6,6,6,6,6,6,6,
6,6,6,6,6,6,6,6,6,6,6,6,6,6,6,6,6,6,6,6,6,6,6,6,6,6,6,6,6,6,6,6,6,6,6,6,6,6,6,6,6,6,6,6,6,6,6,6,6,6,
6,6,6,6,6,6,6,6,6,6,6,6,6,6,6,6,6,6,6,6,6,6,6,6,6,6,6,6,6,6,6,6,6,6,6,6,6,6,6,6,6,6,6,6,6,6,6,6,6,6,
6,6,6,6,6,6,6,6,6,6,6,6,6,6,6,6,6,6,6,6,6,6,6,6,6,6,6,6,6,6,6,6,6,6,6,6,6,6,6,6,6,6,6,6,6,6,6,6,6,6,
6,6,6,6,6,6,6,6,6,6,6,6,6,6,6,6,6,6,6,6,6,6,6,6,6,6,6,6,6,6,6,6,6,6,6,6,6,8,6,8,6,8,6,8,6,8,6,6,8,6,
6,6,6,6,6,6,6,6,6,6,6,6,6,6,6,6,6,6,6,6,6,6,6,6,6,6,6,6,6,6,6,6,6,6,6,6,6,8,6,8,6,8,6,8,6,8,8,6,8,6,
6,6,6,6,6,6,6,6,6,6,6,6,6,6,6,6,6,6,6,6,6,6,6,6,6,6,6,6,6,6,6,6,6,6,6,6,6,8,6,8,6,8,6,8,6,8,6,8,8,6,
6,6,6,6,6,6,6,6,6,6,6,6,6,6,6,6,6,6,6,6,6,6,6,6,6,6,6,6,6,6,6,6,6,6,6,6,6,8,6,8,6,8,6,8,6,8,6,6,8,6,
6,6,6,6,6,6,6,6,6,6,6,6,6,6,6,6,6,6,6,6,6,6,6,6,6,6,6,6,6,6,6,6,6,6,6,6,6,8,6,8,6,8,6,8,6,8,6,6,8,6,
6,6,6,6,6,6,6,6,6,6,6,6,6,6,6,6,6,6,6,6,6,6,6,6,6,6,6,6,6,6,6,6,6,6,6,6,6,6,8,6,8,6,6,8,6,8,6,6,8,6,
6,6,6,6,6,6,6,6,6,6,6,6,6,6,6,6,6,6,6,6,6,6,6,6,6,6,6,6,6,6,6,6,6,6,6,6,6,6,6,6,6,6,6,6,6,6,6,6,6,6,
6,6,6,6,6,6,6,6,6,6,6,6,6,6,6,6,6,6,6,6,6,6,6,6,6,6,6,6,6,6,6,6,6,6,6,6,6,6,6,6,6,6,6,6,6,6,6,6,6,6,
6,20,6,6,6,6,6,6,6,6,6,6,6,6,6,6,6,6,6,6,6,6,6,6,6,6,6,6,6,6,6,6,6,6,6,6,6,6,6,6,6,6,6,6,6,6,6,6,21,6,
6,6,6,6,6,6,6,6,6,6,6,6,6,6,6,6,6,6,6,6,6,6,6,6,6,6,6,6,6,6,6,6,6,6,6,6,6,6,6,6,6,6,6,6,6,6,6,6,6,6
</data>
 </layer>
 <layer id="2" name="Blocks" width="50" height="30">
  <data encoding="csv">
14,14,14,14,14,14,14,14,14,14,14,14,14,14,14,14,14,14,14,14,14,14,14,14,14,14,14,14,14,14,14,14,14,14,14,14,14,14,14,14,14,14,14,14,14,14,14,14,14,14,
14,0,0,0,0,0,0,0,0,0,0,0,0,0,0,0,0,14,14,14,0,0,0,0,0,0,0,0,0,0,0,0,0,0,0,0,0,0,0,0,0,0,0,0,0,0,0,0,0,14,
14,0,0,0,0,0,0,0,0,0,0,0,0,0,0,0,0,14,14,14,0,0,0,0,0,0,0,0,0,0,0,0,0,0,0,0,0,0,0,0,0,0,0,0,0,0,0,0,0,14,
14,0,0,0,0,0,0,0,0,0,0,0,0,0,0,0,0,14,14,14,0,0,14,0,0,0,0,0,0,0,0,0,0,0,0,0,0,0,0,0,0,0,0,0,0,0,0,0,0,14,
14,0,0,0,0,0,0,0,0,0,0,14,14,14,0,0,0,14,14,14,0,0,0,0,0,0,14,0,0,0,0,0,0,14,14,14,14,14,14,14,14,14,14,14,14,14,14,0,0,14,
14,0,0,0,0,0,0,0,0,0,0,14,14,14,0,0,0,14,14,14,0,0,0,0,0,0,0,0,0,0,0,14,0,14,14,14,14,14,14,14,14,14,14,14,14,14,14,0,0,14,
14,0,0,0,0,0,0,0,0,0,0,14,14,14,0,0,0,14,14,14,0,0,0,0,0,0,0,0,0,14,0,0,0,14,14,14,0,0,0,0,0,0,0,0,0,0,0,0,0,14,
14,0,0,0,0,0,0,0,0,0,14,14,14,14,0,0,0,14,14,14,0,0,14,0,0,0,14,0,0,0,0,0,0,14,14,14,0,0,0,0,0,0,0,0,0,0,0,0,0,14,
14,0,0,0,0,0,0,0,0,14,14,14,14,14,0,0,0,14,14,14,0,0,0,0,0,0,0,0,0,0,0,0,0,14,14,14,0,0,14,14,14,14,14,14,14,14,14,14,14,14,
14,0,0,0,0,0,0,0,14,14,14,14,14,14,0,0,0,14,14,14,0,0,0,0,0,0,0,0,0,14,0,0,0,14,14,14,0,0,14,14,14,14,14,14,14,14,14,14,14,14,
14,0,0,0,0,0,0,14,14,14,14,14,14,14,0,0,0,14,14,14,0,0,0,0,0,0,14,0,0,0,0,0,14,14,14,14,0,0,0,0,0,0,0,0,0,0,0,0,0,14,
14,0,0,0,0,0,14,14,14,14,14,14,14,14,0,0,0,14,14,14,0,14,0,0,0,0,0,0,0,0,0,0,0,14,14,14,0,0,0,0,0,0,0,0,0,0,0,0,0,14,
14,0,0,0,0,14,14,14,14,14,14,14,14,14,0,0,0,14,14,14,0,0,0,0,14,0,0,0,14,0,0,0,0,14,14,14,14,14,14,14,14,14,14,14,14,14,14,0,0,14,
14,0,0,0,14,14,14,14,14,14,14,14,14,14,0,0,0,14,14,14,14,14,14,14,14,14,14,14,14,14,14,0,0,14,14,14,14,14,14,14,14,14,14,14,14,14,14,0,0,14,
14,0,0,14,14,14,14,14,14,14,14,14,14,14,0,0,0,14,14,14,14,14,14,14,14,14,14,14,14,14,14,0,0,14,14,14,0,0,0,0,0,0,0,0,0,0,0,0,0,14,
14,0,0,0,0,0,0,0,0,0,0,14,14,14,0,0,0,14,14,14,0,0,0,0,0,0,0,0,0,0,0,0,0,14,14,14,0,0,0,0,0,0,0,0,0,0,0,0,0,14,
14,0,0,0,0,0,0,0,0,0,0,14,14,14,0,0,0,14,14,14,0,0,0,0,0,0,0,0,0,0,0,0,0,14,14,14,0,0,0,0,14,0,0,14,0,0,14,0,0,14,
14,14,14,14,14,14,14,14,14,14,0,14,14,14,0,0,0,14,14,14,0,0,14,14,14,14,14,14,14,14,14,14,14,14,14,14,0,0,14,14,14,14,14,14,14,14,14,14,14,14,
14,0,0,0,0,0,0,0,0,0,0,14,14,14,0,0,0,14,14,14,0,0,14,14,14,14,14,14,14,14,14,14,14,14,14,14,0,0,14,14,14,14,14,14,14,14,14,14,14,14,
14,0,0,0,0,0,0,0,0,0,0,14,14,14,0,0,0,14,14,14,0,0,0,0,0,0,0,0,0,0,0,0,0,14,14,14,0,0,0,0,0,0,0,0,0,0,0,0,0,14,
14,0,0,0,0,0,0,0,0,0,14,14,14,14,0,0,0,14,14,14,0,0,0,0,0,0,0,0,0,0,0,0,0,14,14,14,0,0,0,0,0,0,0,0,0,0,0,0,0,14,
14,0,0,0,0,0,0,0,0,0,0,14,14,14,0,0,0,14,14,14,14,14,14,14,14,14,14,14,14,14,14,0,0,14,14,14,0,0,0,0,0,0,0,0,0,0,0,0,0,14,
14,0,0,0,0,0,0,14,0,0,0,14,14,14,0,0,0,14,14,14,14,14,14,14,14,14,14,14,14,14,14,14,0,14,14,14,0,0,0,0,0,0,0,0,0,0,0,0,0,14,
14,0,0,0,0,0,0,0,0,0,0,14,14,14,0,0,0,14,14,14,0,0,0,0,0,0,0,0,0,0,0,0,0,14,14,14,0,0,0,0,0,0,0,0,0,0,0,0,0,14,
14,0,0,0,0,14,0,0,0,0,0,14,14,14,0,0,0,14,14,14,0,0,0,0,0,0,0,0,0,0,0,0,0,14,14,14,0,0,0,0,0,0,0,0,0,0,0,0,0,14,
14,0,0,0,0,0,0,0,0,0,0,14,14,14,0,0,0,14,14,14,0,0,0,14,0,14,0,14,0,14,0,14,14,14,14,14,0,0,0,0,0,0,0,0,0,0,0,0,0,14,
14,0,0,14,0,0,0,0,0,0,0,14,14,14,0,0,0,0,0,0,0,0,0,14,0,14,0,14,0,14,0,14,14,14,14,14,0,0,0,0,0,0,0,0,0,0,0,0,0,14,
14,0,0,0,0,0,0,0,0,0,0,14,14,14,0,0,0,0,0,0,0,0,0,14,0,14,0,14,0,14,0,14,14,14,14,14,0,0,0,0,0,0,0,0,0,0,0,0,0,14,
14,0,0,0,0,0,0,0,0,0,0,14,14,14,0,0,0,0,0,0,0,0,14,14,14,14,14,14,14,14,14,14,14,14,14,14,0,0,0,0,0,0,0,0,0,0,0,0,0,14,
14,14,14,14,14,14,14,14,14,14,14,14,14,14,14,14,14,14,14,14,14,14,14,14,14,14,14,14,14,14,14,14,14,14,14,14,14,14,14,14,14,14,14,14,14,14,14,14,14,14
</data>
 </layer>
 <layer id="3" name="Interactables" width="50" height="30">
  <data encoding="csv">
0,0,0,0,0,0,0,0,0,0,0,0,0,0,0,0,0,0,0,0,0,0,0,0,0,0,0,0,0,0,0,0,0,0,0,0,0,0,0,0,0,0,0,0,0,0,0,0,0,0,
0,0,0,0,0,0,0,0,0,0,0,0,0,0,0,0,0,0,0,0,0,0,0,0,0,0,0,0,0,0,0,0,0,0,0,0,0,0,0,0,0,0,0,0,0,0,0,0,0,0,
0,0,0,0,0,0,0,0,0,0,0,0,0,0,0,0,0,0,0,0,0,0,0,0,0,0,0,0,0,0,0,0,0,0,0,0,0,0,0,0,0,0,0,0,0,0,0,0,0,0,
0,0,0,0,0,0,0,0,0,0,0,0,0,0,0,0,0,0,0,0,0,0,0,0,0,0,0,0,0,0,0,0,0,0,0,0,0,0,0,0,0,0,0,0,0,0,0,0,0,0,
0,0,0,0,0,0,0,0,0,0,0,0,0,0,0,0,0,0,0,0,0,0,0,0,0,0,0,0,0,0,0,0,0,0,0,0,0,0,0,0,0,0,0,0,0,0,0,0,0,0,
0,0,0,0,0,0,0,0,0,0,0,0,0,0,0,0,0,0,0,0,0,0,0,0,0,0,0,0,0,0,0,0,0,0,0,0,0,0,0,0,0,0,0,0,0,0,0,0,0,0,
0,0,0,0,0,0,0,0,0,0,0,0,0,0,0,0,0,0,0,0,0,0,0,0,0,0,0,0,0,0,0,0,0,0,0,0,0,0,0,0,0,0,0,0,0,0,0,0,0,0,
0,0,0,0,0,0,0,0,0,0,0,0,0,0,0,0,0,0,0,0,0,0,0,0,0,0,0,0,0,0,0,0,0,0,0,0,0,0,0,0,0,0,0,0,0,0,0,0,0,0,
0,0,0,0,0,0,0,0,0,0,0,0,0,0,0,0,0,0,0,0,0,0,0,0,0,0,0,0,0,0,0,0,0,0,0,0,0,0,0,0,0,0,0,0,0,0,0,0,0,0,
0,0,0,0,0,0,0,0,0,0,0,0,0,0,0,0,0,0,0,0,0,0,0,0,0,0,0,0,0,0,0,0,0,0,0,0,0,0,0,0,0,0,0,0,0,0,0,0,0,0,
0,0,0,0,0,0,0,0,0,0,0,0,0,0,0,0,0,0,0,0,0,0,0,0,0,0,0,0,0,0,0,0,0,0,0,0,0,0,0,0,0,0,0,0,0,0,0,0,0,0,
0,0,0,0,0,0,0,0,0,0,0,0,0,0,0,0,0,0,0,0,0,0,0,0,0,0,0,0,0,0,0,0,0,0,0,0,0,0,0,0,0,0,0,0,0,0,0,0,0,0,
0,0,0,0,0,0,0,0,0,0,0,0,0,0,0,0,0,0,0,0,0,0,0,0,0,0,0,0,0,0,0,0,0,0,0,0,0,0,0,0,0,0,0,0,0,0,0,0,0,0,
0,0,0,0,0,0,0,0,0,0,0,0,0,0,0,0,0,0,0,0,0,0,0,0,0,0,0,0,0,0,0,0,0,0,0,0,0,0,0,0,0,0,0,0,0,0,0,0,0,0,
0,0,0,0,0,0,0,0,0,0,0,0,0,0,0,0,0,0,0,0,0,0,0,0,0,0,0,0,0,0,0,0,0,0,0,0,0,0,0,0,0,0,0,0,0,0,0,0,0,0,
0,0,0,0,0,0,0,0,0,0,0,0,0,0,0,0,0,0,0,0,0,0,0,0,0,0,0,0,0,0,0,0,0,0,0,0,0,0,0,0,0,0,0,0,0,0,0,0,0,0,
0,0,0,0,0,0,0,0,0,0,0,0,0,0,0,0,0,0,0,0,0,0,0,0,0,0,0,0,0,0,0,0,0,0,0,0,0,0,0,0,0,0,0,0,0,0,0,0,0,0,
0,0,0,0,0,0,0,0,0,0,0,0,0,0,0,0,0,0,0,0,0,0,0,0,0,0,0,0,0,0,0,0,0,0,0,0,0,0,0,0,0,0,0,0,0,0,0,0,0,0,
0,0,0,0,0,0,0,0,0,0,0,0,0,0,0,0,0,0,0,0,0,0,0,0,0,0,0,0,0,0,0,0,0,0,0,0,0,0,0,0,0,0,0,0,0,0,0,0,0,0,
0,0,0,0,0,0,0,0,0,0,0,0,0,0,0,0,0,0,0,0,0,0,0,0,0,0,0,0,0,0,0,0,0,0,0,0,0,0,0,0,0,0,0,0,0,0,0,0,0,0,
0,0,0,0,0,0,0,0,0,0,0,0,0,0,0,0,0,0,0,0,0,0,0,0,0,0,0,0,0,0,0,0,0,0,0,0,0,0,0,0,0,0,0,0,0,0,0,0,0,0,
0,0,0,0,0,0,0,0,0,0,0,0,0,0,0,0,0,0,0,0,0,0,0,0,0,0,0,0,0,0,0,0,0,0,0,0,0,0,0,0,0,0,0,0,0,0,0,0,0,0,
0,0,0,0,0,0,0,0,0,0,0,0,0,0,0,0,0,0,0,0,0,0,0,0,0,0,0,0,0,0,0,0,0,0,0,0,0,0,0,0,0,0,0,0,0,0,0,0,0,0,
0,0,0,0,0,0,0,0,0,0,0,0,0,0,0,0,0,0,0,0,0,0,0,0,0,0,0,0,0,0,0,0,0,0,0,0,0,0,0,0,0,0,0,0,0,0,0,0,0,0,
0,0,0,0,0,0,0,0,0,0,0,0,0,0,0,0,0,0,0,0,0,0,0,0,0,0,0,0,0,0,0,0,0,0,0,0,0,0,0,0,0,0,0,0,0,0,0,0,0,0,
0,0,0,0,0,0,0,0,0,0,0,0,0,0,0,0,0,0,0,0,0,0,0,0,0,0,0,0,0,0,0,0,0,0,0,0,0,0,0,0,0,0,0,0,0,0,0,0,0,0,
0,0,0,0,0,0,0,0,0,0,0,0,0,0,0,0,0,0,0,0,0,0,0,0,0,0,0,0,0,0,0,0,0,0,0,0,0,0,0,0,0,0,0,0,0,0,0,0,0,0,
0,0,0,0,0,0,0,0,0,0,0,0,0,0,0,0,0,0,0,0,0,0,0,0,0,0,0,0,0,0,0,0,0,0,0,0,0,0,0,0,0,0,0,0,0,0,0,0,0,0,
0,0,0,0,0,0,0,0,0,0,0,0,0,0,0,0,0,0,0,0,0,0,0,0,0,0,0,0,0,0,0,0,0,0,0,0,0,0,0,0,0,0,0,0,0,0,0,0,0,0,
0,0,0,0,0,0,0,0,0,0,0,0,0,0,0,0,0,0,0,0,0,0,0,0,0,0,0,0,0,0,0,0,0,0,0,0,0,0,0,0,0,0,0,0,0,0,0,0,0,0
</data>
 </layer>
</map>
